X:224
T: NAECHTEN ABEND DA ICH UEBER DIE GASSE GING
N: E0813A
O: Europa, Mitteleuropa, Deutschland, Schlesien
R: Tage - Lied, Kilt - Lied
M: 2/4
L: 1/16
K: G
D2 | G2G2A2A2 | B2BAG2
G2 | A2A2B2d2 | c2B2A2
B2 | d2d2A2B2 | d2cBA2
c2 | B2A2G2B2 | AGFED2
D2 | G2G2A2d2 | B4A4 | G4z2

@@@ Tune index: 4537
